!!!COA:	Josquin des Prez
!!!CDT:	~1450-1521/08/27
!!!OPR:	Missa Quem dicunt homines
!!!ONM:	1
!!!OTL:	Kyrie
!!!AGN:	Mass; Kyrie
!!!SCT:	NJE 10.3
!!!SCA:	New Josquin Edition 10.3
!!!voices:	4
!!!voices-OPR:	4-5
**kern	**kern	**kern	**kern
*staff4	*staff3	*staff2	*staff1
*Ivox	*Ivox	*Ivox	*Ivox
*I"Bassus	*I"Tenor	*I"Altus	*I"Superius
*I'B	*I'T	*I'A	*I'S
*>[A,B,C]	*>[A,B,C]	*>[A,B,C]	*>[A,B,C]
*>A	*>A	*>A	*>A
*clefF4	*clefGv2	*clefGv2	*clefG2
*k[]	*k[]	*k[]	*k[]
*M2/1	*M2/1	*M2/1	*M2/1
*met(C|)	*met(C|)	*met(C|)	*met(C|)
!!section: Kyrie I
!!!OMD: Kyrie I
=1-	=1-	=1-	=1-
0r	0r	0r	1g
.	.	.	2g/
.	.	.	2g/
=2	=2	=2	=2
0r	0r	0r	2a/
.	.	.	2b\
.	.	.	1g
=3	=3	=3	=3
0r	0r	1c	2r
.	.	.	2g/
.	.	2c\	2.cc\
.	.	2c\	.
.	.	.	4b\
=4	=4	=4	=4
0r	0r	2d\	2a/
.	.	2e\	2.g/
.	.	1c	.
.	.	.	4f/
.	.	.	[2e/
=5	=5	=5	=5
1r	0r	2r	2e/]
.	.	2G/	2d/
1C	.	2.c\	[1e
.	.	4B\	.
=6	=6	=6	=6
2C/	0r	4A/	1e]
.	.	4G/	.
2C/	.	2g\	.
2D\	.	2f\	1r
2E\	.	[2e\	.
=7	=7	=7	=7
1C	1G	2e\]	0r
.	.	4d\	.
.	.	4c\	.
2r	2G/	2B\	.
2C/	2G/	[2c\	.
=8	=8	=8	=8
2F\	2A/	2c\]	1r
4E\	2B\	2d\	.
4D\	.	.	.
2E\	2.G/	1B	1g
[2G\	.	.	.
.	4A/	.	.
=9	=9	=9	=9
2G\]	2B\	2r	2g/
4F\	1c	2c\	2g/
4E\	.	.	.
2F\	.	2f\	2a/
2G\	2B\	4e\	2b\
.	.	4d\	.
=10	=10	=10	=10
1C	2c\	2e\	2.g/
.	1e	1g	.
.	.	.	4a/
1r	.	.	2b\
.	4d\	4f\	[2cc\
.	4c\	4e\	.
=11	=11	=11	=11
2r	1d	2f\	2cc\]
2G\	.	2.g\	2b\
2.c\	2e\	.	1cc
.	.	4f\	.
.	4c\	4e\	.
4B\	4d\	4d\	.
=12	=12	=12	=12
2A\	4e\	2c\	0r
.	4f\	.	.
2G\	1g	2B\	.
1c	.	1A	.
.	2f\	.	.
=13	=13	=13	=13
1B	2e\	1G	2r
.	2d\	.	2g/
2r	4c\	2r	2.cc\
.	4B\	.	.
2C/	4A/	2c\	.
.	4G/	.	4b\
=14	=14	=14	=14
2.F\	2A/	2c\	2.a/
.	1F	2c\	.
4E\	.	.	4g/
2D\	.	2d\	2f/
2C/	2G/	2e\	[2e/
=15	=15	=15	=15
1F	1A	2.c\	2e/]
.	.	.	2d/
.	.	8B/L	.
.	.	8A/J	.
1E	2G/	[1B	1e
.	[2g\	.	.
=16	=16	=16	=16
0r	4g\]	2B\]	2r
.	4f\	.	.
.	1e	2c\	2cc\
.	.	1A	2cc\
.	4d\	.	2cc\
.	4c\	.	.
=17	=17	=17	=17
0r	2B\	2G/	2dd\
.	2c\	1g	2ee\
.	1A	.	2.cc\
.	.	2f#i\	.
.	.	.	8b/L
.	.	.	8a/J
=18	=18	=18	=18
1r	2.G/	2.g\	1.b
.	4A/	8f\L	.
.	.	8e\J	.
2r	4B\	2d\	.
.	4G/	.	.
2F\	4A/	2c\	2cc\
.	4B\	.	.
=19	=19	=19	=19
2F\	1c	1f	1a
2F\	.	.	.
2G\	2r	1e	2g/
2A\	2c\	.	[2cc\
=20	=20	=20	=20
1F	2c\	1A	4cc\]
.	.	.	4b\
.	2c\	.	4a/
.	.	.	4g/
2r	2d\	2r	2f/
2C/	2e\	[2c\	2g/
=21	=21	=21	=21
2.F\	2c\	4c\]	1a
.	.	4B\	.
.	1f	4A/	.
4E\	.	4G/	.
2D\	.	2A/	2r
2C/	2e\	2c\	2g/
=22	=22	=22	=22
1G	2.d\	1B	2g/
.	.	.	2g/
.	8c\L	.	.
.	8B\J	.	.
2F\	2A/	2r	2a/
2G\	[2d\	2G/	2b\
=23	=23	=23	=23
1E	2d\]	2G/	1g
.	2c\	2G/	.
2D\	2f\	2A/	2r
2G\	4e\	2B\	2g/
.	4d\	.	.
=24	=24	=24	=24
1C	1e	2G/	2.cc\
.	.	2g\	.
.	.	.	4b\
2D\	2r	2f\	2a/
2E\	2G/	[2e\	[2g/
=25	=25	=25	=25
2C/	2G/	4e\]	4g/]
.	.	4d\	4f/
2E\	2G/	1c	1e
2F\	2A/	.	.
2G\	2B\	2B\	2d/
=26	=26	=26	=26
0Cl	0Gl	0cl	0el
!!LO:LB:i:g=z
=27||	=27||	=27||	=27||
*>B	*>B	*>B	*>B
*clefF4	*clefGv2	*clefGv2	*clefG2
*k[]	*k[]	*k[]	*k[]
*M2/1	*M2/1	*M2/1	*M2/1
*met(C|)	*met(C|)	*met(C|)	*met(C|)
!!section: Christe
!!!OMD: Christe
0r	0r	1G	0r
.	.	1d	.
=28	=28	=28	=28
1C	0r	2e\	0r
.	.	2.g\	.
1G	.	.	.
.	.	4f\	.
.	.	4g\	.
.	.	4e\	.
=29	=29	=29	=29
2A\	0r	2f\	0r
2.c\	.	2g\	.
.	.	1e	.
4B\	.	.	.
4c\	.	.	.
4A\	.	.	.
=30	=30	=30	=30
2B\	0r	2d\	2r
2c\	.	1e	1cc
1A	.	.	.
.	.	4d\	2cc\
.	.	4c\	.
=31	=31	=31	=31
2G\	0r	2d\	2b\
4F\	.	1f	2a/
4G\	.	.	.
4A\	.	.	2.cc\
4B\	.	.	.
[2c\	.	[2e\	.
.	.	.	4b\
=32	=32	=32	=32
4c\]	1r	4e\]	2g/
4B\	.	4d\	.
2A\	.	4e\	2a/
.	.	4c\	.
2G\	2r	4d\	2b\
.	.	4e\	.
[2F\	[2c\	[2f\	[2a/
=33	=33	=33	=33
4F\]	2c\]	4f\]	4a/]
4E\	.	4g\	4g/
2C/	2c\	2e\	1g
1D	2B\	1d	.
.	2A/	.	2f#i/
=34	=34	=34	=34
1C	2.c\	2r	1.g
.	.	2.e\	.
.	4B\	.	.
2r	2.G/	.	.
.	.	4d\	.
2C/	.	2g\	2e/
.	4A/	.	.
=35	=35	=35	=35
2D\	2B\	2.f\	1.d
1F	2.A/	.	.
.	.	4e\	.
.	.	4d\	.
.	4G/	4c\	.
2E\	[2G/	[2c\	2c/
=36	=36	=36	=36
1D	2G/]	2c\]	2d/
.	2F/	2B\	1f
1C	1G	2.c\	.
.	.	.	2e/
.	.	4B\	.
=37	=37	=37	=37
0r	2r	2G/	1d
.	2G/	2g\	.
.	2A/	2f\	2c/
.	[2c\	[2e\	2g/
=38	=38	=38	=38
2r	2c\]	4e\]	2a/
.	.	4d\	.
2G\	2B\	1d	1g
2A\	1A	.	.
[2c\	.	2c\	2f#i/
=39	=39	=39	=39
2c\]	1G	1d	1g
2B\	.	.	.
1A	2r	1e	1r
.	2c\	.	.
=40	=40	=40	=40
2G\	2d\	1r	0r
2.d\	1f	.	.
.	.	2r	.
4c\	.	.	.
[2c\	2e\	2c\	.
=41	=41	=41	=41
2c\]	1d	2d\	1r
2B\	.	1f	.
1A	1c	.	2r
.	.	2e\	2cc\
=42	=42	=42	=42
2.D\	2B\	1d	2dd\
.	4A/	.	1ff
4E\	4G/	.	.
2F\	4A/	2c\	.
.	4B\	.	.
2C/	[2c\	2g\	2ee\
=43	=43	=43	=43
2F\	2c\]	2a\	1dd
2G\	2B\	1g	.
1A	1c	.	[1cc
.	.	2f#i\	.
=44	=44	=44	=44
1G	1d	1g	2cc\]
.	.	.	2b\
2r	2r	2f\	2a/
2C/	2c\	2e\	[2g/
=45	=45	=45	=45
2D\	2B\	1d	2g/]
1F	2.A/	.	2f/
.	.	1c	1g
.	4G/	.	.
2E\	[2c\	.	.
=46	=46	=46	=46
1D	2c\]	1d	1r
.	2B\	.	.
[1C	1A	[1e	2r
.	.	.	[2cc\
=47	=47	=47	=47
1C]	1G	2e\]	2cc\]
.	.	4d\	2cc\
.	.	4c\	.
1r	1r	4d\	2b\
.	.	4e\	.
.	.	[2f\	2a/
=48	=48	=48	=48
2r	0r	4f\]	2.cc\
.	.	4e\	.
1c	.	1e	.
.	.	.	4b\
.	.	.	[1g
2c\	.	4d\	.
.	.	4c\	.
=49	=49	=49	=49
2B\	1r	2d\	2g/]
2A\	.	2.e\	2c/
2.c\	2r	.	1e
.	.	4d\	.
.	[2g\	[2c\	.
4B\	.	.	.
=50	=50	=50	=50
1G	2g\]	2c\]	2d/
.	2g\	2B\	1dd
2r	2f\	1A	.
[2c\	2e\	.	[2cc\
=51	=51	=51	=51
2c\]	2.g\	1e	2cc\]
2c\	.	.	4b\
.	4f\	.	4a/
2B\	2d\	2r	2g/
2A\	[2e\	[2c\	2a/
=52	=52	=52	=52
2.c\	4e\]	2c\]	1e
.	4d\	.	.
.	1g	2c\	.
4B\	.	.	.
2G\	.	2B\	2r
[2A\	2f\	2A/	[2cc\
=53	=53	=53	=53
4A\]	2.e\	2.c\	4cc\]
4G\	.	.	4b\
1E	.	.	1g
.	4d\	4B\	.
.	2B\	2G/	.
2D\	[2d\	[2A/	2f/
=54	=54	=54	=54
2.F\	4d\]	4A/]	1a
.	4c\	4F/	.
.	2A/	1f	.
4E\	.	.	.
1C	1c	.	[1g
.	.	2e\	.
=55	=55	=55	=55
1G	1B	2d\	1g]
.	.	1g	.
1A	1c	.	1cc
.	.	2f#i\	.
=56	=56	=56	=56
0Gl	0dl	0gl	0bl
!!LO:LB:i:g=z
=57||	=57||	=57||	=57||
*>C	*>C	*>C	*>C
*clefF4	*clefGv2	*clefGv2	*clefG2
*k[]	*k[]	*k[]	*k[]
*M2/1	*M2/1	*M2/1	*M2/1
*met(C|)	*met(C|)	*met(C|)	*met(C|)
!!section: Kyrie II
!!!OMD: Kyrie II
0r	0r	1g	0r
.	.	2g\	.
.	.	2g\	.
=58	=58	=58	=58
0r	2r	2d\	0r
.	2d\	1f	.
.	2d\	.	.
.	2d\	4e\	.
.	.	4d\	.
=59	=59	=59	=59
1r	2A/	1e	0r
.	1c	.	.
1G	.	[1d	.
.	4B\	.	.
.	4A/	.	.
=60	=60	=60	=60
2G\	1B	1d]	0r
2G\	.	.	.
2D\	2.A/	2.f\	.
[2F\	.	.	.
.	4G/	4e\	.
=61	=61	=61	=61
2F\]	2A/	2c\	0r
4E\	2B\	2d\	.
4D\	.	.	.
1E	2G/	2B\	.
.	[2e\	[2g\	.
=62	=62	=62	=62
2.C/	4e\]	4g\]	2r
.	4d\	4f\	.
.	1c	1e	2g/
4D\	.	.	.
4E\	.	.	2g/
4F\	.	.	.
[2G\	2B\	4d\	2g/
.	.	4c\	.
=63	=63	=63	=63
2G\]	2G/	2B\	2d/
4F\	2A/	1c	1f
4E\	.	.	.
1D	1F	.	.
.	.	2B\	4e/
.	.	.	4d/
=64	=64	=64	=64
0C	2r	0c	1e
.	2G/	.	.
.	2A/	.	2r
.	2G/	.	2g/
=65	=65	=65	=65
0r	2.c\	2r	2a/
.	.	2c\	2g/
.	4B\	.	.
.	4A/	2c\	2.cc\
.	4G/	.	.
.	[2F/	2c\	.
.	.	.	4b\
=66	=66	=66	=66
2r	2F/]	2d\	2a/
2G\	2E/	2e\	2g/
2A\	4F/	2.c\	2f/
.	4G/	.	.
[2c\	4A/	.	4e/
.	4B\	4B\	4d/
=67	=67	=67	=67
2c\]	2c\	2A/	4e/
.	.	.	4f/
2B\	2d\	2G/	2.g/
1c	1e	2r	.
.	.	.	4c/
.	.	2c\	[2cc\
=68	=68	=68	=68
1A	1c	2e\	2cc\]
.	.	2f\	4b\
.	.	.	4a/
2.G\	2r	[1g	[1b
.	2d\	.	.
4F\	.	.	.
=69	=69	=69	=69
2G\	2e\	2g\]	2b\]
2A\	2c\	4f\	2cc\
.	.	4e\	.
1D	1d	4f\	1a
.	.	4e\	.
.	.	4d\	.
.	.	4c\	.
=70	=70	=70	=70
1E	2G/	2B\	2r
.	2B\	1e	2g/
2.F\	1A	.	2.a/
.	.	2d\	.
4E\	.	.	4b\
=71	=71	=71	=71
1C	2r	2.e\	4cc\
.	.	.	4b\
.	2.G/	.	4cc\
.	.	4f\	4dd\
2r	.	1g	2ee\
.	4A/	.	.
2G\	2B\	.	[2dd\
=72	=72	=72	=72
2A\	4c\	0r	2dd\]
.	4B\	.	.
2F\	4c\	.	1cc
.	4d\	.	.
1G	2e\	.	.
.	[2d\	.	2b\
=73	=73	=73	=73
2C/	4d\]	2r	2a/
.	4c\	.	.
2E\	1c	2G/	2g/
1D	.	2A/	2.f/
.	2B\	2B\	.
.	.	.	8e/L
.	.	.	8d/J
=74	=74	=74	=74
1C	4A/	4c\	2.e/
.	4G/	4B\	.
.	1g	4c\	.
.	.	4d\	4f/
2r	.	2e\	2g/
2D\	2f\	[2d\	4a/
.	.	.	[4b\
=75	=75	=75	=75
2E\	2g\	4d\]	4b\]
.	.	4c\	4cc\
2F\	4f\	1c	2.a/
.	4e\	.	.
1G	[1d	.	.
.	.	.	4g/
.	.	2B\	[2g/
=76	=76	=76	=76
1D	1d]	2A/	2g/]
.	.	1d	2f#i/
2r	2.G/	.	1g
[2G\	.	2e\	.
.	4A/	.	.
=77	=77	=77	=77
2G\]	2B\	2d\	2r
2A\	1c	1a	2e/
2F\	.	.	2f/
2G\	2B\	2g\	2d/
=78	=78	=78	=78
1C	4c\	1g	1e
.	4B\	.	.
.	4c\	.	.
.	4d\	.	.
2r	2e\	1r	2.g/
[2G\	[2d\	.	.
.	.	.	4a/
=79	=79	=79	=79
2G\]	2d\]	2r	2b\
2A\	2c\	2e\	1cc
2F\	2A/	2f\	.
2G\	2B\	2d\	2b\
=80	=80	=80	=80
2C/	2G/	1e	4cc\
.	.	.	4b\
1c	2r	.	4cc\
.	.	.	4dd\
.	2e\	1a	2ee\
2d\	4f\	.	[2dd\
.	4e\	.	.
=81	=81	=81	=81
2B\	4d\	0g	2dd\]
.	4c\	.	.
2c\	2e\	.	2.cc\
1G	1d	.	.
.	.	.	4b\
.	.	.	4b\
.	.	.	4a/
=82	=82	=82	=82
2E\	[0cl	2g\	[0ccl
1F	.	1a	.
4E\	.	4g\	.
4D\	.	4f\	.
=83	=83	=83	=83
0Cl	0c]	0el	0cc]
==	==	==	==
*-	*-	*-	*-
!!!RDF**kern: l=long note in original notation
!!!RDF**kern: i=editorial accidental
!!!RDF**kern: V=start of tuplet marker
!!!RDF**kern: Z=end of tuplet marker
!!!ENC:	Rob Wegman; Jesse Rodin (May 2013)
!!!END:	2013/05/08/
!!!EED:	Jesse Rodin
!!!EEV:	2013/05/08/
!!attribution-level@Jos: 4 (questionable)
!!!ONB:	Translated from MusicXML and edited on 2013/05/08/ by Craig Sapp
!!muse2ps: T^@{OPR}^u^@{ONM}{. }@{OTL}^C^@{COA}\n@{SCT}^i2I100v85,90,85,150c100Q16
